dist/svgs/link.svg

<svg xmlns="http://www.w3.org/2000/svg" viewBox="0 0 512 512"><path d="M491 319q23 24 21.5 58.5T487 437q-26 27-51 51-13 12-29.5 18t-33 5.5-32.5-7-29-18.5q-15-15-29.5-30.5T252 426q-15-13-23-30.5t-8.5-36 6-36T247 291q-1-2-3-4l-23-23q-11 11-23.5 18t-28.5 9q-19 2-36.5-1.5T101 272q-21-19-41.5-39T20 192Q9 180 4.5 165.5t-4.5-30T5.5 105 22 79q27-31 58-58 12-11 28-16t32-4.5T171.5 7 199 25l34 34 34 34q24 25 25 62t-27 66q7 6 13 12.5t14 13.5q11-11 24.5-17.5T346 221q19-2 36 2.5t31 17.5q40 38 78 78zM221 177q21-22 0-43l-31.5-31.5L158 70q-9-8-20-8.5T117 69l-48 48q-8 8-8 19t8 19q33 35 68 68 9 8 20.5 7t19.5-9q-5-5-9-9.5t-7-9.5q-7-8-5.5-19t9.5-19 18.5-9 18.5 6q5 3 9.5 7t9.5 9zm221 219q8-8 8.5-19t-7.5-20q-33-35-68-68-9-8-20-7t-21 11q4 3 7.5 5.5t6.5 6.5q9 11 8.5 23t-9.5 20-21 8-22-9q-3-3-6-6.5t-6-6.5q-22 23-1 44 16 16 31 31.5t31 30.5q10 10 22 10.5t22-9.5l22.5-22.5z"/></svg>

<?xml version="1.0" encoding="UTF-8" standalone="no"?><svg   xmlns:svg="http://www.w3.org/2000/svg"   xmlns="http://www.w3.org/2000/svg"   version="1.1"   width="512"   height="512"   viewBox="0 0 512 512">  <path     d="M491 319Q514 343 512.5 377.5T487 437Q461 464 436 488Q423 500 406.5 506T373.5 511.5T341 504.5T312 486Q297 471 282.5 455.5T252 426Q237 413 229 395.5T220.5 359.5T226.5 323.5T247 291Q246 289 244 287L221 264Q210 275 197.5 282T169 291Q150 293 132.5 289.5T101 272Q80 253 59.5 233T20 192Q9 180 4.5 165.5T0 135.5T5.5 105T22 79Q49 48 80 21Q92 10 108 5T140 0.5T171.5 7T199 25L233 59L267 93Q291 118 292 155T265 221Q272 227 278 233.5T292 247Q303 236 316.5 229.5T346 221Q365 219 382 223.5T413 241Q453 279 491 319zM221 177Q242 155 221 134L189.5 102.5T158 70Q149 62 138 61.5T117 69L69 117Q61 125 61 136T69 155Q102 190 137 223Q146 231 157.5 230T177 221Q172 216 168 211.5T161 202Q154 194 155.5 183T165 164T183.5 155T202 161Q207 164 211.5 168T221 177zM442 396Q450 388 450.5 377T443 357Q410 322 375 289Q366 281 355 282T334 293Q338 296 341.5 298.5T348 305Q357 316 356.5 328T347 348T326 356T304 347Q301 344 298 340.5T292 334Q270 357 291 378Q307 394 322 409.5T353 440Q363 450 375 450.5T397 441L419.5 418.5z"     id="link" /></svg>
